X:1
T:Mary on the Wild Moor (Wind blew across
M:3/4
L:1/8
K:F
 z4 cc| c4 dc| A4 cc| c4 AA| A3 G F2| G4 F2| A2 A2 A2| B2 B2 BB| c2 f2 e2|\
 d4 FG| A4 GA| B4 BG| F4 z2|

